icons-common/sound.svg

<svg height="1em" width="auto" viewBox="0 0 105 105" fill="currentColor" xmlns="http://www.w3.org/2000/svg">
    <path d="M67.0482 62.8759C69.9345 55.5387 69.9345 49.4169 67.0482 42.0798C65.7127 39.514 68.8144 36.6782 71.0545 38.3437C79.9718 44.3754 79.9718 60.5802 71.0545 66.612C68.7713 68.2775 65.7127 65.3966 67.0482 62.8759Z"
          />
    <path d="M76.4824 72.6433C84.452 60.0846 84.452 44.8701 76.4824 32.3565C74.7162 29.7907 78.1194 26.5047 80.4026 28.5303C94.4893 39.6936 94.4893 65.3512 80.4026 76.5145C78.0763 78.5401 74.7162 75.2091 76.4824 72.6883V72.6433Z"
          />
    <path d="M50.1614 34.8773C51.8415 34.8773 53.4354 36.3177 53.4354 38.2983V66.7017C53.4354 68.6823 51.8845 70.1227 50.1614 70.1227C49.6014 70.1227 49.0844 69.9876 48.5244 69.6725L37.4963 63.0106C37.0224 62.6955 36.4193 62.5605 35.8593 62.5605H33.1453C27.8466 62.5605 23.5388 58.0591 23.5388 52.5225C23.5388 46.9859 27.8466 42.4846 33.1453 42.4846H35.8593C36.4193 42.4846 36.9793 42.3495 37.4963 42.0344L48.5244 35.3725C49.0414 35.0574 49.6014 34.9223 50.1614 34.9223M50.1614 27.045C48.2659 27.045 46.4136 27.5852 44.7766 28.5755L34.7392 34.6072H33.1453C23.7111 34.5622 16 42.6196 16 52.4775C16 62.3354 23.7111 70.3928 33.1453 70.3928H34.7392L44.7766 76.4245C46.4136 77.4148 48.2659 77.955 50.1614 77.955C56.1063 77.955 60.9742 72.9135 60.9742 66.6567V38.2983C60.9742 32.0865 56.1493 27 50.1614 27V27.045Z"
          />
</svg>

<svg xmlns="http://www.w3.org/2000/svg" width="auto" height="1em" fill="currentColor" viewBox="0 0 105 105">
    <path d="M67.048 62.876c2.886-7.337 2.886-13.46 0-20.796-1.335-2.566 1.766-5.402 4.007-3.736 8.917 6.031 8.917 22.236 0 28.268-2.284 1.666-5.342-1.215-4.007-3.736"/>
    <path d="M76.482 72.643c7.97-12.558 7.97-27.773 0-40.287-1.766-2.565 1.637-5.851 3.92-3.826 14.087 11.164 14.087 36.821 0 47.985-2.326 2.025-5.686-1.306-3.92-3.827zM50.161 34.877c1.68 0 3.274 1.44 3.274 3.421v28.404c0 1.98-1.55 3.42-3.274 3.42-.56 0-1.077-.134-1.637-.45l-11.028-6.661c-.474-.316-1.077-.45-1.637-.45h-2.714c-5.298 0-9.606-4.502-9.606-10.038s4.308-10.038 9.606-10.038h2.714c.56 0 1.12-.136 1.637-.45l11.028-6.662a3.1 3.1 0 0 1 1.637-.45m0-7.878c-1.895 0-3.747.54-5.384 1.53l-10.038 6.032h-1.594C23.711 34.562 16 42.62 16 52.477s7.711 17.916 17.145 17.916h1.594l10.038 6.031c1.637.99 3.489 1.531 5.384 1.531 5.945 0 10.813-5.041 10.813-11.298V38.298C60.974 32.086 56.15 27 50.161 27z"/>
</svg>
